gtk-3.0/assets/checkbox-unchecked-dark.svg

<svg width="16" xmlns="http://www.w3.org/2000/svg" viewBox="0 0 16 16" height="16" xmlns:xlink="http://www.w3.org/1999/xlink">
<defs>
<linearGradient id="linearGradient3809">
<stop offset="0" style="stop-color:#262626"/>
<stop offset="1" style="stop-color:#393939"/>
</linearGradient>
<linearGradient gradientTransform="translate(-.00066 -16.06334)" xlink:href="#linearGradient3809" id="linearGradient3815" x1=".811" x2="15.253" gradientUnits="userSpaceOnUse"/>
</defs>
<rect width="14.442" x=".81" y="-15.505" rx="1" height="14.947" style="fill:url(#linearGradient3815)" transform="rotate(90)"/>
<path style="fill:#1f1f1f" d="M 2,0 C 0.892,0 0,0.892 0,2 l 0,12 c 0,1.108 0.892,2 2,2 l 12,0 c 1.108,0 2,-0.892 2,-2 L 16,2 C 16,0.892 15.108,0 14,0 L 2,0 z m 0,1 12,0 c 0.554,0 1,0.446 1,1 l 0,12 c 0,0.554 -0.446,1 -1,1 L 2,15 C 1.446,15 1,14.554 1,14 L 1,2 C 1,1.446 1.446,1 2,1 z"/>
</svg>

<svg xmlns="http://www.w3.org/2000/svg" viewBox="0 0 16 16" xmlns:xlink="http://www.w3.org/1999/xlink">
<g transform="translate(0 -1036.3622)">
<rect width="14.442" x=".811" y="1036.92" rx="1" height="14.947" style="fill:#393939"/>
<path style="fill:#1f1f1f" d="M 2 0 C 0.892 0 3.2526065e-18 0.892 0 2 L 0 14 C 0 15.108 0.892 16 2 16 L 14 16 C 15.108 16 16 15.108 16 14 L 16 2 C 16 0.892 15.108 3.2526065e-18 14 0 L 2 0 z M 2 1 L 14 1 C 14.554 1 15 1.446 15 2 L 15 14 C 15 14.554 14.554 15 14 15 L 2 15 C 1.446 15 1 14.554 1 14 L 1 2 C 1 1.446 1.446 1 2 1 z " transform="translate(0 1036.3622)"/>
</g>
</svg>
